epam-assets/icon-sources/18/action-lock-outline.svg

<svg width="18" height="18" viewBox="0 0 18 18" fill="none" xmlns="http://www.w3.org/2000/svg">
<g id="18/action-lock-outline">
<path id="icon" fill-rule="evenodd" clip-rule="evenodd" d="M9 13.5C8.1675 13.5 7.5 12.825 7.5 12C7.5 11.1675 8.1675 10.5 9 10.5C9.82843 10.5 10.5 11.1716 10.5 12C10.5 12.8284 9.82843 13.5 9 13.5ZM13.5 15.75V8.25H4.5V15.75H13.5ZM13.5 6.75C14.3284 6.75 15 7.42157 15 8.25V15.75C15 16.5784 14.3284 17.25 13.5 17.25H4.5C3.6675 17.25 3 16.575 3 15.75V8.25C3 7.4175 3.6675 6.75 4.5 6.75H5.25V5.25C5.25 3.17893 6.92893 1.5 9 1.5C9.99456 1.5 10.9484 1.89509 11.6517 2.59835C12.3549 3.30161 12.75 4.25544 12.75 5.25V6.75H13.5ZM9 3C7.75736 3 6.75 4.00736 6.75 5.25V6.75H11.25V5.25C11.25 4.00736 10.2426 3 9 3Z" fill="#6C6F80"/>
</g>
</svg>

<svg xmlns="http://www.w3.org/2000/svg" width="18" height="18" fill="none" viewBox="0 0 18 18">
  <path fill="#6C6F80" fill-rule="evenodd" d="M9 13.5A1.5 1.5 0 0 1 7.5 12 1.5 1.5 0 1 1 9 13.5Zm4.5 2.25v-7.5h-9v7.5h9Zm0-9a1.5 1.5 0 0 1 1.5 1.5v7.5a1.5 1.5 0 0 1-1.5 1.5h-9a1.5 1.5 0 0 1-1.5-1.5v-7.5c0-.832.667-1.5 1.5-1.5h.75v-1.5a3.75 3.75 0 1 1 7.5 0v1.5h.75ZM9 3a2.25 2.25 0 0 0-2.25 2.25v1.5h4.5v-1.5A2.25 2.25 0 0 0 9 3Z" clip-rule="evenodd"/>
</svg>
